material/.icons/material/location-exit.svg

<svg xmlns="http://www.w3.org/2000/svg" viewBox="0 0 24 24"><path d="M22 12l-4-4v3h-8v2h8v3m2 2a10 10 0 110-12h-2.73a8 8 0 100 12z"/></svg>

<?xml version="1.0" encoding="UTF-8"?><!DOCTYPE svg PUBLIC "-//W3C//DTD SVG 1.1//EN" "http://www.w3.org/Graphics/SVG/1.1/DTD/svg11.dtd"><svg xmlns="http://www.w3.org/2000/svg" xmlns:xlink="http://www.w3.org/1999/xlink" version="1.1" id="mdi-location-exit" width="24" height="24" viewBox="0 0 24 24"><path d="M22 12L18 8V11H10V13H18V16M20 18A10 10 0 1 1 20 6H17.27A8 8 0 1 0 17.27 18Z" /></svg>
